X: 9757
T: Delia Crowley's
R: reel
M: 4/4
K: Dmajor
B2AG FDDE|FDAD BDAD|B2AG FDDF|ED=CD EFGE:|
d3f a3f|g2fg eBB2|d3f a3f|g2fg egfe|
d3f a3f|g2fg eBB2|B3A Bcde|f2eg fdd2||
B2AG FDDE|(3FGA DF ADFA|B2AG FDDE|1 E=CC2 EFGA:|2 E2ED EFGA||
dcde f2ed|gefd eBBA|Addc defd|(3gag fg efge|
dcde f2ed|gefd edBe|(3dcB cA Bcde|f2af fedA||

